!!!OTL: Alter Ostergesang
!!!ARE: Europa, Mitteleuropa, Deutschland
!!!SCT: A0552A
!!!YEM: Copyright 1995, estate of Helmut Schaffrath.
**kern
*ICvox
*Ivox
!! Irregular meter.
*MX
*k[b-e-]
*g:
{2dd
2cc
2dd
2ffn
2gg
2dd
=1
2dd
2cc
2dd
2b-
2a
2b-
2g
=2
2b-
2cc
2cc
2g
2fn
=3
2b-
2cc
2dd}
{2dd
2cc
2dd
2b-
2a
2b-
2g
2a
=4
2fn
2g
2a
2g
=5
2dd
2cc
2dd
2ffn
2gg
2dd
=6
2ffn
2dd
2ffn
2dd
2cc
2b-
=7
2dd
2b-
2g
2a
2f#
2g}
==
!!!AGN: Romanze, Ballade, Lied
!! Muenchner Codex 15. Jh.
!!!ONB: ESAC (Essen Associative Code) Database: ALTDEU
!!!AMT: irregular
!!!AIN: vox
!!!EED: Helmut Schaffrath
!!!EEV: 1.0
*-
